lib/logo_updates/nrk-logo-nrk-yr-radio.svg

<svg width="188" height="62" viewBox="0 0 188 62" fill="none" xmlns="http://www.w3.org/2000/svg">
<path d="M0 52V10.0038H13.7802V52H0ZM32.5283 16.6877L40.4532 52H25.3721L15.9092 10.0038H24.3676C26.3072 9.97864 28.1892 10.6624 29.6607 11.9264C31.1347 13.1373 32.1473 14.8184 32.5283 16.6877ZM42.5233 52V10.0038H56.3035V52H42.5233ZM66.7116 25.9743C65.2267 25.9888 63.7656 25.6003 62.4839 24.8504C61.2193 24.1194 60.1688 23.0689 59.438 21.8041C58.6872 20.5222 58.2986 19.0607 58.3134 17.5751C58.2964 16.0986 58.6853 14.6458 59.438 13.3755C60.1766 12.1245 61.2259 11.0853 62.4839 10.3588C63.766 9.60976 65.2269 9.2213 66.7116 9.23484C68.1877 9.21895 69.6399 9.60775 70.9108 10.3588C72.1562 11.0917 73.1943 12.13 73.9271 13.3755C74.6789 14.6462 75.0677 16.0987 75.0517 17.5751C75.0655 19.0605 74.6769 20.5218 73.9271 21.8041C73.202 23.0633 72.1627 24.113 70.9108 24.8504C69.6398 25.6029 68.1866 25.9918 66.7097 25.9743H66.7116ZM77.1807 52V10.0038H90.9621V52H77.1807ZM108.408 32.9538C108.447 32.9946 108.742 33.4776 109.295 34.403C109.848 35.3283 110.567 36.5114 111.454 37.952C112.341 39.392 113.277 40.9199 114.262 42.536C115.247 44.1521 116.174 45.6803 117.043 47.1202C117.908 48.5602 118.894 50.1867 120 52H104.859C103.912 50.4621 103.055 49.0721 102.286 47.83C101.517 46.5878 100.7 45.2471 99.8334 43.8077C98.9653 42.3698 98.1071 40.9699 97.2587 39.6081C96.4103 38.2464 95.6813 37.0536 95.0714 36.0297C94.459 35.0051 94.0348 34.3149 93.7989 33.9594C93.2139 33.0771 92.8677 32.058 92.7944 31.0019C92.853 29.9883 93.1791 29.0084 93.7397 28.1619C93.9762 27.7676 94.41 27.0675 95.0409 26.062C95.6717 25.0564 96.411 23.8637 97.2587 22.4835C98.1064 21.1034 98.9647 19.6936 99.8334 18.2543C100.702 16.815 101.519 15.4643 102.286 14.2025C103.056 12.9419 103.914 11.5421 104.859 10.0029H120L108.289 29.1082C107.926 29.6755 107.722 30.3292 107.697 31.0019C107.736 31.7081 107.983 32.3871 108.406 32.9538H108.408Z" fill="white"/>
<path d="M169.716 24.5072H165.337C164.681 24.5159 164.055 24.7804 163.591 25.2442C163.127 25.7081 162.863 26.3348 162.855 26.9906V33.3402C163.641 32.992 164.48 32.7787 165.337 32.7092H170.165C170.743 32.7375 171.321 32.6493 171.864 32.4498C172.407 32.2503 172.904 31.9436 173.326 31.5479C173.721 31.1255 174.028 30.6282 174.227 30.0852C174.427 29.5423 174.515 28.9649 174.488 28.3871C174.515 27.861 174.419 27.3356 174.208 26.8529C173.997 26.3703 173.676 25.9435 173.271 25.6066C172.248 24.8423 170.992 24.454 169.716 24.5072Z" fill="white"/>
<path d="M157 0C148.778 0 140.893 3.26606 135.08 9.0796C129.266 14.8931 126 22.7779 126 30.9995C126 39.2212 129.266 47.1061 135.079 52.9198C140.893 58.7335 148.778 61.9997 157 62C165.221 62 173.106 58.7339 178.92 52.9202C184.734 47.1064 188 39.2214 188 30.9995C188 22.7779 184.734 14.893 178.92 9.07948C173.106 3.26597 165.221 -4.00648e-09 157 0ZM154.665 36.6166C154.643 43.2392 149.895 45.3452 148.084 46.3982L144.964 42.6237L145.037 42.5879L144.964 42.5018C145.968 41.9995 149.695 40.0872 149.695 37.1577V34.9462C149.182 35.9876 146.526 37.1663 144.72 37.1963H144.521C141.951 37.2 139.473 36.2421 137.574 34.5107C136.574 33.5421 135.788 32.3751 135.266 31.0848C134.743 29.7945 134.496 28.4093 134.541 27.018V20.3402H139.385V27.018C139.385 30.9027 142.071 32.3177 144.621 32.3535C146.854 32.3226 149.654 31.3547 149.751 28.3623V20.3364H154.66L154.665 36.6166ZM175.701 40.7278C175.969 41.0076 176.304 41.2128 176.675 41.3233C177.046 41.4337 177.439 41.4457 177.816 41.3579L177.809 45.3733H174.871C174.837 45.3733 174.804 45.3791 174.774 45.3791C174.744 45.3791 174.705 45.3791 174.671 45.3733H174.562V45.3674C173.99 45.3198 173.451 45.0757 173.038 44.6764L167.321 37.6735H165.342C164.686 37.6822 164.059 37.9468 163.596 38.4109C163.132 38.8749 162.868 39.5018 162.86 40.1578V45.3733H157.895V26.99C157.897 25.0152 158.683 23.122 160.078 21.7251C161.474 20.3283 163.367 19.5417 165.342 19.5379H169.721C172.155 19.4788 174.533 20.2704 176.446 21.7764C177.411 22.5815 178.182 23.5927 178.704 24.7355C179.225 25.8784 179.484 27.1237 179.46 28.3797C179.488 29.6107 179.271 30.835 178.822 31.9814C178.372 33.1278 177.699 34.1734 176.842 35.0575C175.764 36.1267 174.427 36.8991 172.962 37.2999C172.962 37.2999 174.639 39.5897 175.701 40.7239V40.7278Z" fill="white"/>
</svg>

<svg xmlns="http://www.w3.org/2000/svg" viewBox="0 0 188 62"><path fill="#fff" d="M0 52V10.004h13.78V52H0Zm32.528-35.312L40.453 52h-15.08l-9.464-41.996h8.459a7.965 7.965 0 0 1 5.293 1.922 8.31 8.31 0 0 1 2.867 4.762ZM42.523 52V10.004h13.78V52h-13.78Zm24.189-26.026a8.213 8.213 0 0 1-4.228-1.124 8.336 8.336 0 0 1-3.046-3.046 8.206 8.206 0 0 1-1.125-4.229 8.056 8.056 0 0 1 1.125-4.2 8.437 8.437 0 0 1 3.046-3.016 8.232 8.232 0 0 1 4.228-1.124 8.083 8.083 0 0 1 4.199 1.124 8.504 8.504 0 0 1 3.016 3.017 8.075 8.075 0 0 1 1.125 4.2 8.226 8.226 0 0 1-1.125 4.228 8.4 8.4 0 0 1-3.016 3.046 8.059 8.059 0 0 1-4.201 1.124h.002ZM77.18 52V10.004h13.781V52H77.181Zm31.227-19.046c.039.04.334.524.887 1.449.553.925 1.272 2.108 2.159 3.549a1143.28 1143.28 0 0 1 5.589 9.168A854.89 854.89 0 0 0 120 52h-15.141c-.947-1.538-1.804-2.928-2.573-4.17a382.214 382.214 0 0 1-2.453-4.022 351.934 351.934 0 0 0-2.574-4.2 213.445 213.445 0 0 1-2.188-3.578 62.753 62.753 0 0 0-1.272-2.07 6.119 6.119 0 0 1-1.005-2.958 5.744 5.744 0 0 1 .946-2.84c.236-.394.67-1.095 1.3-2.1.632-1.006 1.371-2.198 2.219-3.579a636.03 636.03 0 0 0 2.574-4.229c.869-1.439 1.686-2.79 2.453-4.052.77-1.26 1.628-2.66 2.573-4.2H120l-11.711 19.106a3.773 3.773 0 0 0-.592 1.894c.039.706.286 1.385.709 1.952h.002ZM169.716 24.507h-4.379a2.516 2.516 0 0 0-2.482 2.484v6.35a7.655 7.655 0 0 1 2.482-.632h4.828a4.315 4.315 0 0 0 3.161-1.161 4.318 4.318 0 0 0 1.162-3.16 3.396 3.396 0 0 0-1.217-2.781 5.554 5.554 0 0 0-3.555-1.1Z"/><path fill="#fff" d="M157 0a30.998 30.998 0 0 0-31 31 31.002 31.002 0 0 0 31 31 31.001 31.001 0 0 0 0-62Zm-2.335 36.617c-.022 6.622-4.77 8.728-6.581 9.781l-3.12-3.774.073-.036-.073-.086c1.004-.503 4.731-2.415 4.731-5.344v-2.212c-.513 1.042-3.169 2.22-4.975 2.25h-.199a10.289 10.289 0 0 1-6.947-2.685 9.98 9.98 0 0 1-3.033-7.493V20.34h4.844v6.678c0 3.885 2.686 5.3 5.236 5.335 2.233-.03 5.033-.998 5.13-3.99v-8.027h4.909l.005 16.28Zm21.036 4.11a2.23 2.23 0 0 0 2.115.63l-.007 4.016h-2.938c-.034 0-.067.006-.097.006s-.069 0-.103-.006h-.109v-.006a2.49 2.49 0 0 1-1.524-.69l-5.717-7.004h-1.979a2.514 2.514 0 0 0-2.482 2.485v5.215h-4.965V26.99a7.463 7.463 0 0 1 7.447-7.452h4.379a10.46 10.46 0 0 1 6.725 2.238 8.395 8.395 0 0 1 3.014 6.604 9.297 9.297 0 0 1-2.618 6.677 8.812 8.812 0 0 1-3.88 2.243s1.677 2.29 2.739 3.424v.004Z"/></svg>
